X: 27260
T: Miss Stewart Of Garth
R: reel
M: 4/4
K: Ddorian
|:D/D/D DE FG AF|Ec Gc EC CE|D/D/D DE DE FG|1 Ag fe Ad d2:|2 Ag fe Ad dc||
de fg af df|eg cg eg ce|de fg ga af|ec ge Ad dc|
de fg af df|eg cg eg cb|af ge fd ec|dA FE D/D/D DE||

